X:1
T:Die Erde trinkt für sich - Schütz
T:James Gibb editions
T:#
%%score [ 1 2 ] 3
L:1/8
Q:1/4=100
M:4/4
K:F
V:1 treble nm="Alto" snm="A"
V:2 treble-8 nm="Tenor" snm="T"
V:3 bass nm="Continuo"
V:1
"^Heinrich Schütz\n(1585-1672)" z8 |"^Die Erde trinkt für sich, SWV 438" z8 | z8 | z8 | z8 | z8 | %6
w: ||||||
 z8 | z2 F2 D2 B,2 |[M:4/4] (F,2 B,4) A,2 | B,8 | z4 z2 G2 | _E2 C2 (G,2 C2- | C2) B,2 A,4 | %13
w: |Die Er- de|trinkt * für|sich,|die|Bäu- me trin\- *|* ken Er-|
 G,4 z2 D2 | F>E E>D E2 z E | G>F F>E F2 z2 | z4 z2 D2 | _E>D D>C D2 CD/=E/ | F3 C C4 | %19
w: den, vom|Mee- re pflegt die Luft, vom|Mee- re pflegt die Luft,|vom|Mee- re pflegt die Luft auch zu- ge-|trun- ken wer-|
 B,2 z B, D>C C>B, | C2 z2 CD/E/ F2- | FF z2 z2 ^F2 | G2 G2 z2 DG | E2 E2 ^FFGG | (G2 ^F2) G4 | %25
w: den, vom Mee- re pflegt die|Luft auch zu- ge- trun\-|* ken, die|Son- ne trinkt das|Meer, der Mon- de trinkt die|Son\- * nen,|
 z4 z2 E2 | =F2 F2 z2 CF | D2 z F G2 G2 | z2 FA E2 z ^C | D2 D2 z2 A,D | =B,2 D2 EEFF | %31
w: die|Son- ne trinkt das|Meer, die Son- ne|trinkt das Meer, die|Son- ne trinkt das|Meer, der Mon- de trinkt die|
 (F2 E2) F4 | z8 | z8 | z8 | z4 z2 F2 | _EDEC D2 E2 | _E>D D>C C4 | B,4 z4 | z2 E2 ^FFGG | %40
w: Son\- * nen,||||wollt|dann, ihr Freun- de, mir das|Trin- ken nicht ver- gon-|nen,|der Mon- de trinkt die|
 (G2 ^F2) G4 | z2 =F2 _EDEC | D4 z2 D2 | EEFF (F2 E2) | F4 z2 C2 | B,A,B,G, A,2 z D | %46
w: Son\- * nen,|wollt dann, ihr Freun- de,|mir, der|Mon- de trinkt die Son\- *|nen, wollt|dann, ihr Freun- de, mir, wollt|
 CB,CA, B,2 z C | C>B, B,>A, A,4 | %48
w: dann, ihr Freun- de, mir das|Trin- ken nicht ver- gon-|
 G,2[Q:1/4=98] G2[Q:1/4=96] G>[Q:1/4=95]F[Q:1/4=94] F>[Q:1/4=93]_E |[Q:1/4=90] (_E6[Q:1/4=85] F2) | %50
w: nen, das Trin- ken nicht ver-|gon\- *|
[Q:1/4=85] D16 |] %51
w: nen.|
V:2
 z2 d2 B2 G2 | (D2 G4) ^F2 | G8 | z4 z2 c2 | A2 F2 (C2 F2- | F2) E2 E4 | D8 | z8 | %8
w: Die Er- de|trinkt * für|sich,|die|Bäu- me trin\- *|* ken Er-|den,||
[M:4/4][K:treble-8] z8 | z8 | z8 | z8 | z8 | z2 G2 B>A A>G | A2 z A c>B B>A | B2 z2 AB/c/ d2- | %16
w: |||||vom Mee- re pflegt die|Luft, vom Mee- re pflegt die|Luft auch zu- ge- trun\-|
 dd ^c2 d2 z2 | z8 | FG/A/ B3 B A2 | B2 F2 B>A A>G | A2 z2 z2 AB/c/ | d3 A A4 | G4 z2 =B2 | %23
w: * ken wer- den,||auch zu- ge- trun- ken wer-|den, vom Mee- re pflegt die|Luft auch zu- ge-|trun- ken wer-|den, die|
 c2 c2 z4 | z2 Ad =B2 B2 | ^ccdd (d2 c2) | d4 z2 A2 | _B2 B2 z2 Bd | A4 z2 E2 | ^FFGG (G2 F2) | %30
w: Son- ne|trinkt das Meer, der|Mon- de trinkt die Son\- *|nen, die|Son- ne trinkt das|Meer, der|Mon- de trinkt die Son\- *|
 G2 z =B c2 c2 | z2 Gc A2 A2 | =BBcc (c2 B2) | c2 z c BABG | A2 B2 B>A A>G | G4 F4 | z4 z2 G2 | %37
w: nen, die Son- ne|trinkt das Meer, der|Mon- de trinkt die Son\- *|nen, wollt dann, ihr Freun- de,|mir das Trin- ken nicht ver-|gon- nen,|der|
 AABB (B2 A2) | B2 z d cBcA | =B2 c2 c>_B B>A | A4 G2 z B | AGAF G2 z c | BABG A2 B2 | B>A A>G G4 | %44
w: Mon- de trinkt die Son\- *|nen, wollt dann, ihr Freun- de,|mir das Trin- ken nicht ver-|gon- nen, wollt|dann, ihr Freun- de, mir, wollt|dann, ihr Freun- de, mir das|Trin- ken nicht ver- gon-|
 F2 z F _EDEC | D2 z G F=EFD | E2 A2 A>G G>^F | (^F2 G4 F2) | G4 z2 z d | d>c c>=B c4 | =B16 |] %51
w: nen, wollt dann, ihr Freun- de,|mir, wollt dann, ihr Freun- de,|mir das Trin- ken nicht ver-|gon\- * *|nen, das|Trin- ken nicht ver- gon-|nen.|
V:3
 G,,8 | B,,4 D,4 | G,,8 | C,4 A,,4 | F,,4 A,,4 | G,,4 A,,4 | D,8 | B,,8 |[M:4/4] D,4 F,4 | %9
w: |5~~~~~6 4~~~~3|||* 5~~~~~~~6|7~~~~~~~6 4~~~3|||5~~~~6 4~~~~~3|
 B,,4 B,4 | G,4 _E,4 | C,4 _E,4 | D,8 | G,,8 | D,4 B,,4 | G,4 D,2 D,F,/G,/ | A,G, A,2 D,4 | %17
w: |||3~~~~~4~~~~~~~~~~~~~~~~~~3|||||
 C,4 B,,2 C,2 | D,2 B,,D,/_E,/ F,E, F,2 | B,,4 B,,4 | F,,2 C,D,/E,/ F,4 | D,E,/F,/ G,C, D,4 | %22
w: |||||
 G,,8 | C,4 D,4- | D,4 G,,4 | A,,8 | D,4 F,4 | B,,4 G,,4 | D,4 ^C,2 A,,2 | D,8 | G,,4 C,4- | %31
w: |* 3~~~~~~~~~~~~~~~~~~~~~~~4|~~~~~~~~~3 *|3~~~~~~~~~~~~~~~~~~~~4~~~~~~~~~~~~~~~~~~~~~~~~~~~~~~~~~~~3||||3~~~~~~~~~~~~~~~~~~~~~~~4~~~~~~~~~~~~~~~~~~~~~~~~~~~~~~~~~~~~~~~~~~3||
 C,4 F,,4 | G,,8 | C,4 D,2 E,2 | F,2 B,,2 C,4- | C,4 F,,4 | G,,2 A,,2 B,,2 _E,2 | F,8 | B,,4 A,,4 | %39
w: |3~~~~~~~~~~~~~~~~~~~~~~4~~~~~~~~~~~~~~~~~~~~~~~~~~~~~~~~~~~~~~~~~~~~3||* * 3~~~~~~~~~~~~~~~~~~~~~~~~~~~~~~~~~4|~~~~~~~~~3 *|6~~~~~~~~~~~~~~~~~5 * * *|3~~~~~~~~~~~~~~~~~~~~~~~~~~~4~~~~~~~~~~~~~~~~~~~~~~~~~~~~~~~~~~~~~~~~~~3||
 G,,2 C,2 D,4- | D,4 G,,4 | D,4 C,4 | G,,4 D,2 B,,2 | C,8 | F,,4 C,4 | G,,4 D,4 | %46
w: * * 3~~~~~~~~~~~~~~~~~~~~~~~~~~~4|~~~~~~~~~3 *|||3~~~~~~~~~~~~~~~~~~~~~~~~~4~~~~~~~~~~~~~~~~~~~~~~~~~~~~~~~~~~~~3|||
 A,,2 F,,2 G,,2 C,2 | D,8 | G,,4 =B,,4 | C,8 | G,,16 |] %51
w: |||||

